src/assets/duotone/ArrangeCircle.svg

<svg width="24" height="24" viewBox="0 0 24 24"  xmlns="http://www.w3.org/2000/svg">
<path opacity="0.4" d="M12 22C17.5228 22 22 17.5228 22 12C22 6.47715 17.5228 2 12 2C6.47715 2 2 6.47715 2 12C2 17.5228 6.47715 22 12 22Z" />
<path d="M17.3898 9.25998L14.3498 6.22C14.2798 6.15 14.1998 6.1 14.1098 6.06C13.9298 5.98 13.7198 5.98 13.5398 6.06C13.3598 6.14 13.2098 6.28 13.1298 6.47C13.0898 6.56 13.0698 6.65998 13.0698 6.75998V17.07C13.0698 17.48 13.4098 17.82 13.8198 17.82C14.2298 17.82 14.5698 17.48 14.5698 17.07V8.57001L16.3298 10.33C16.4798 10.48 16.6698 10.55 16.8598 10.55C17.0498 10.55 17.2398 10.48 17.3898 10.33C17.6798 10.02 17.6798 9.54998 17.3898 9.25998Z" />
<path d="M10.9301 6.75C10.9301 6.34 10.5901 6 10.1801 6C9.77009 6 9.43009 6.34 9.43009 6.75V15.25L7.67011 13.49C7.38011 13.2 6.90008 13.2 6.61008 13.49C6.32008 13.78 6.32008 14.26 6.61008 14.55L9.65009 17.59C9.72009 17.66 9.80011 17.71 9.89011 17.75C9.98011 17.79 10.0801 17.81 10.1801 17.81C10.2801 17.81 10.3701 17.79 10.4701 17.75C10.6501 17.67 10.8001 17.53 10.8801 17.34C10.9201 17.25 10.9401 17.15 10.9401 17.05V6.75H10.9301Z" />
</svg>

<?xml version="1.0" encoding="UTF-8"?>
<svg width="24" height="24" viewBox="0 0 24 24" xmlns="http://www.w3.org/2000/svg">
 <path d="m12 22c5.5228 0 10-4.4772 10-10 0-5.5228-4.4772-10-10-10-5.5228 0-10 4.4772-10 10 0 5.5228 4.4772 10 10 10z" opacity=".4"/>
 <path d="m17.39 9.26-3.04-3.04c-0.07-0.07-0.15-0.12-0.24-0.16-0.18-0.08-0.39-0.08-0.57 0s-0.33 0.22-0.41 0.41c-0.04 0.09-0.06 0.18998-0.06 0.28998v10.31c0 0.41 0.34 0.75 0.75 0.75s0.75-0.34 0.75-0.75v-8.5l1.76 1.76c0.15 0.15 0.34 0.22 0.53 0.22s0.38-0.07 0.53-0.22c0.29-0.31 0.29-0.78002 0-1.07z"/>
 <path d="m10.93 6.75c0-0.41-0.34-0.75-0.75-0.75-0.41001 0-0.75001 0.34-0.75001 0.75v8.5l-1.76-1.76c-0.29-0.29-0.77003-0.29-1.06 0s-0.29 0.77 0 1.06l3.04 3.04c0.07 0.07 0.15002 0.12 0.24002 0.16s0.18999 0.06 0.28999 0.06 0.19-0.02 0.29-0.06c0.18-0.08 0.33-0.22 0.41-0.41 0.04-0.09 0.06-0.19 0.06-0.29v-10.3h-0.01z"/>
</svg>
